X:1
T:Sorge lucente
T:Sorge lucente
T:Gio.Girolamo Kapsperger
C:Gio.Girolamo Kapsperger
%%score [ 1 2 3 ] { ( 4 6 ) | 5 }
L:1/8
Q:1/4=120
M:3/4
K:F
V:1 treble nm="Soprano 1" snm="S 1"
V:2 treble nm="Soprano 2" snm="S 2"
V:3 bass nm="Bass" snm="B"
V:4 treble nm="BC" snm="BC"
V:6 treble 
V:5 bass 
V:1
 B3 B c2 | d3 e f2 | _e4 d2 | c2 c2 d2 | BA Bc d2- | d2 _e2 c2 | B6 | f3 _e d2 | c4 d2 | B2 c2 d2 | %10
w: Sor- ge lu-|cen- te la|va- g'au-|ro- ra nel|o- * * * *|* ri- en-|te,|sco- te dal|cri- ne|su'l pian ch'in|
w: Poi fuor del|ma- re di-|rai fe-|con- do, il|so- * * * *|* le'ap- pa-|re,|e- co splen-|do- ri,|ri- por- t'al|
w: Vi- ci- no'al|ri- vo l'ar-|men- to|fug- ge, al|rez- * * * *|* zo'es- ti-|vo,|e nel ai|su- ra|che'l tut- to|
 _e3 f d2- | dc B2 A2 | G6 |: d2 d2 e2 | f4 f2 | _e2 e2 d2 | c2 c2 d2 | BA Bc d2- | d2 _e2 c2 | %19
w: fio- ra per-|* le di bri-|ne.|Gl'au- gel- l'in|tan- to|chia- man il|gior- no con-|do- * * * *|* l'e can-|
w: mon- do va-|* ghi co- lo-|re.|Ar- den- te|poi di-|scio- glie al|ge- lo, gl'ar-|gen- * * * *|* * ti|
w: strug- ge, lan-|* gue na- tu-|ra.|Co- si di-|scen- de|di chio che|pia- ce cio|che _ _ _ _|_ n'of- fen-|
 B6 | f2 f2 e2 | f4 f2 | c2 c2 d2 | _e3 f d2- | dc B2 A2 | G6 |] %26
w: te,|al her- be'in-|ten- ti|pe'l pra- to'a-|dor- no scor-|* ron gl'ar- me-|ti.|
w: suoi.|A gl'au- gel-|let- ti|sul ver- de|ste- lo,- io|_ fiam- ma'il pet-|ti|
w: de.|E giun- te'al|be- ne|con fe te-|na- ce scan-|* no le pe-|ne|
V:2
 G3 G A2 | B3 c d2 | c4 B2 | A2 A2 B2 | GF GA B2- | B2 B2 A2 | B6 | d3 c B2 | A4 A2 | G2 A2 =B2 | %10
w: Sor- ge lu-|cen- te la|va- g'au-|ro- ra nel|o- * * * *|* ri- en-|te,|co- te dal|cri- ne|su'l pian ch'in|
w: Poi fuor del|ma- re di-|rai fe-|con- do, il|so- * * * *|* le'ap- pa-|re,|e- co splen-|do- ri,|ri- por- ta'l|
w: Vi- ci- no'al|ri- vo l'ar-|men- to|fug- ge, al|rez- * * * *|* zo'es- ti-|vo,|e nel ai|su- ra|ch'el tut- to|
 c3 d G2- | GA G G2 ^F | G6 |: B2 B2 c2 | d4 d2 | c2 c2 B2 | A2 A2 B2 | GF GA B2- | B2 c2 A2 | B6 | %20
w: fio- ra per-|* le di bri- *|ne.|Gl'au- gel- l'in|tan- to|chia- man il|gior- no con-|do- * * * *|* l'e can-|te,|
w: mun- do va-|* ghi co- lo- *|re.|Ar- den- te|poi di-|sco- glie al|ge- lo, gl'ar-|gen- * * * *|* * ti|suoi.|
w: strug- ge, lan-|* gue na- tu- *|ra.|Co- si di-|scen- de|di chio che|pia- ce cio|che _ _ _ _|_ n'of- fen-|de.|
 d2 c2 B2 | A4 A2 | F2 A2 =B2 | c3 d G2- | GA G G2 ^F | G6 |] %26
w: al her- be'in-|ten- ti|pe'l pra- to'a|dor- no scor-|* ron gl'ar- me- *|ti.|
w: A gl'au- gel-|let- ti|su'l ver- de|ste- lo, io|_ fiam- ma'il pet- *|ti.|
w: E giun- te'al|be- ne|con fe te-|na- ce scan-|* no le pe- *|ne.|
V:3
 G,3 G, F,2 | B,2 B,2 B,,2 | C,2 A,,2 B,,2 | F,2 F,2 D,2 | _E,4 D,2 | B,,2 F,4 | B,,6 | %7
w: Sor- ge lu-|cen- te la|va- * g'au-|ro- ra nel|o- ri-|en- *|te,|
w: Poi fuor del|ma- re di|rai _ fe-|con- do, il|so- *|le'ap- pa-|re|
w: Vi- ci- no'al|ri- vo l'ar-|men- * to|fug- ge, al|rez- *|zoes- ti-|vo,|
 B,,3 B,, B,,2 | F,4 F,2 | G,2 F,_E, D,2 | C,2 C,2 G,2 | C,C, D,4 | G,,6 |: G,2 F,2 E,2 | D,4 D,2 | %15
w: co- te dal|cri- ne|su'l pian _ ch'in|fio- ra per|le di bri-|de.|Gl'au- gel- l'in|tan- to|
w: e- co splen-|do- ri,|ri- por- * ta'l|mun- do va-|ghi co- lo-|re.|Ar- den- te|poi di-|
w: e nel ai|su- ra|che'l tut- * to|strug- ge, lan-|gue na- tu-|ra.|Co- si di-|scen- de|
 _E,2 E,2 E,2 | F,2 F,2 D,2 | _E,4 D,2 | B,,2 F,4 | B,,6 | B,2 A,2 G,2 | F,4 F,2 | F,2 _E,2 D,2 | %23
w: chia- man il|gior- no con-|do- *|l'e can-|te,|al her- be'in-|ten- ti|pe'l pra- to'a-|
w: sco- glie al|ge- lo,- gl'ar-|gen- *|* ti|suoi.|A gl'au- gel-|let- ti|su'l ver- de|
w: di chio che|pia- ce cio|che _|n'of- fen-|de.|E giun- te'al|be- ne|con fe te-|
 C,2 C,2 G,2 | C,C, D,4 | G,,6 |] %26
w: dor- no scor-|ron gl'ar- me-|ti.|
w: ste- lo, io|fiam- ma'il pet-|ti.|
w: na- ce scan-|no le pe-|ne.|
V:4
 [GBd]4 [Ac]2 | [DFB]6 | [_Ec]4 [FB]2 | [Ac]4 [FB]2 | [GB]4 [FB]2 | [Fd]2 [CB]2 [Ac]2 | [FBd]6 | %7
 [DFB]6 | [FAc]6 | [DB]2 [FA]2 [G=B]2 | [_EGc]4 [GB]2 | B2 B2 A2 | [DGB]6 |: [Bd]4 [Gc]2 | %14
 [FAd]4 [FA]2 | [GB]4 [DB]2 | [Ac]4 [FA]2 | [GB]4 [Ad]2 | [FBd]2 [c_e]2 [Ac]2 | [FBd]6 | %20
 [DFB]4 [GB]2 | [FAc]4 [FA]2 | [FAc]2 [Ac]2 [G=B]2 | [c_e]4 [DB]2 | c2 A4 | x6 |] %26
V:5
 G,3 G, F,2 | B,2 B,2 B,,2 | C,2 A,,2 B,,2 | F,2 F,2 D,2 | _E,4 D,2 | B,,2 F,4 | B,,6 | %7
 B,,3 B,, B,,2 | F,4 F,2 | G,2 F,_E, D,2 | C,2 C,2 G,2 | C,C, D,4 | G,,6 |: G,2 F,2 E,2 | D,4 D,2 | %15
 _E,2 E,2 E,2 | F,2 F,2 D,2 | _E,4 D,2 | B,,2 F,4 | B,,6 | B,2 A,2 G,2 | F,4 F,2 | F,2 _E,2 D,2 | %23
 C,2 C,2 G,2 | C,C, D,4 | G,,6 |] %26
V:6
 x6 | x6 | x6 | x6 | x6 | x6 | x6 | x6 | x6 | x6 | x6 | _E2 G3 ^F | x6 |: x6 | x6 | x6 | x6 | x6 | %18
 x6 | x6 | x6 | x6 | x6 | x6 | G2 D G2 ^F | [DG=B]6 |] %26

